images/ic_token_icomp.svg

<svg height="250" viewBox="0 0 250 250" width="250" xmlns="http://www.w3.org/2000/svg"><path d="m125 250c69.039062 0 125-55.960938 125-125s-55.960938-125-125-125-125 55.960938-125 125 55.960938 125 125 125zm0 0" fill="#070a0e"/><path d="m72.210938 166.914062c-3.738282-2.289062-6.023438-6.351562-6.023438-10.726562v-24.425781c0-2.898438 2.363281-5.25 5.261719-5.238281.925781 0 1.835937.25 2.636719.714843l55.113281 32.136719c3.226562 1.875 5.210937 5.324219 5.210937 9.0625v25.300781c.015625 3.472657-2.796875 6.300781-6.273437 6.300781-1.164063 0-2.3125-.328124-3.300781-.925781zm82.152343-46.363281c3.222657 1.875 5.199219 5.335938 5.210938 9.0625v51.347657c0 1.515624-.8125 2.914062-2.136719 3.652343l-12.0625 6.785157c-.152344.089843-.3125.152343-.488281.203124v-28.515624c0-3.6875-1.9375-7.109376-5.113281-9.011719l-48.398438-28.949219v-32.1875c0-2.898438 2.363281-5.25 5.261719-5.238281.925781 0 1.835937.25 2.636719.714843zm24.125-37.925781c3.234375 1.875 5.222657 5.335938 5.222657 9.074219v75c-.011719 1.539062-.863282 2.949219-2.210938 3.6875l-11.4375 6.175781v-52.210938c0-3.6875-1.9375-7.101562-5.089844-9l-49.472656-29.675781v-30.527343c0-.921876.25-1.835938.699219-2.636719 1.460937-2.5 4.675781-3.347657 7.175781-1.898438zm0 0" fill="#00d395" fill-rule="evenodd"/></svg>

<svg xmlns="http://www.w3.org/2000/svg" xmlns:xlink="http://www.w3.org/1999/xlink" width="250px" height="250px" viewBox="0 0 250 250" version="1.1">
<g id="surface1">
<path style=" stroke:none;fill-rule:nonzero;fill:rgb(2.745098%,3.921569%,5.490196%);fill-opacity:1;" d="M 125 250 C 194.039062 250 250 194.039062 250 125 C 250 55.960938 194.039062 0 125 0 C 55.960938 0 0 55.960938 0 125 C 0 194.039062 55.960938 250 125 250 Z M 125 250 "/>
<path style=" stroke:none;fill-rule:evenodd;fill:rgb(0%,82.745099%,58.431375%);fill-opacity:1;" d="M 72.210938 166.914062 C 68.472656 164.625 66.1875 160.5625 66.1875 156.1875 L 66.1875 131.761719 C 66.1875 128.863281 68.550781 126.511719 71.449219 126.523438 C 72.375 126.523438 73.285156 126.773438 74.085938 127.238281 L 129.199219 159.375 C 132.425781 161.25 134.410156 164.699219 134.410156 168.4375 L 134.410156 193.738281 C 134.425781 197.210938 131.613281 200.039062 128.136719 200.039062 C 126.972656 200.039062 125.824219 199.710938 124.835938 199.113281 Z M 154.363281 120.550781 C 157.585938 122.425781 159.5625 125.886719 159.574219 129.613281 L 159.574219 180.960938 C 159.574219 182.476562 158.761719 183.875 157.4375 184.613281 L 145.375 191.398438 C 145.222656 191.488281 145.0625 191.550781 144.886719 191.601562 L 144.886719 163.085938 C 144.886719 159.398438 142.949219 155.976562 139.773438 154.074219 L 91.375 125.125 L 91.375 92.9375 C 91.375 90.039062 93.738281 87.6875 96.636719 87.699219 C 97.5625 87.699219 98.472656 87.949219 99.273438 88.414062 Z M 178.488281 82.625 C 181.722656 84.5 183.710938 87.960938 183.710938 91.699219 L 183.710938 166.699219 C 183.699219 168.238281 182.847656 169.648438 181.5 170.386719 L 170.0625 176.5625 L 170.0625 124.351562 C 170.0625 120.664062 168.125 117.25 164.972656 115.351562 L 115.5 85.675781 L 115.5 55.148438 C 115.5 54.226562 115.75 53.3125 116.199219 52.511719 C 117.660156 50.011719 120.875 49.164062 123.375 50.613281 Z M 178.488281 82.625 "/>
</g>
</svg>
